public/assets/logo-vertical.svg

<svg xmlns="http://www.w3.org/2000/svg" width="465" height="381" fill="none" xmlns:v="https://vecta.io/nano"><path d="M207.027 17.1542L207.264 16.9371L207.491 16.7099L208.365 15.8353L209.595 15.1325L209.638 15.1165L211.295 14.7851H328.23C359.331 18.0874 374.47 47.2415 368.672 72.7641C366.999 78.4357 362.681 87.4807 355.457 94.9069C348.369 102.194 338.918 107.559 326.218 107.477L326.17 107.476H326.122H285.463H270.677V122.262V186.46C270.589 186.667 270.391 187.071 270.011 187.386C269.799 187.562 269.282 187.931 268.13 188.194C267.193 188.408 265.687 188.582 263.459 188.391L228.505 170.513L206.988 159.508V183.677V224.434C206.957 224.504 206.92 224.582 206.876 224.666C206.673 225.05 206.405 225.385 206.072 225.65C205.784 225.88 205.213 226.249 204.069 226.49C203.169 226.68 201.749 226.821 199.68 226.613L113.613 177.587C108.343 172.644 105.319 166.606 103.854 160.842C102.193 154.31 102.864 149.538 103.257 148.393L103.461 147.801L103.613 147.194C104.604 143.258 108.736 135.488 115.765 129.849C122.194 124.691 130.277 121.828 140.624 124.811L142.631 125.389H142.712L183.703 145.488L204.998 155.929V132.213L204.998 24.4523L204.998 24.452C204.998 23.8124 205.153 21.9456 205.744 19.9698C206.346 17.9547 206.982 17.2064 207.025 17.1568C207.026 17.1548 207.027 17.1539 207.027 17.1542Z" stroke="url(#A)" stroke-width="29.57"/><path d="M31.4 292c5.667 0 10.333 1.133 14 3.4s6.333 5.167 8 8.7 2.5 7.3 2.5 11.3c0 3.933-.833 7.633-2.5 11.1s-4.333 6.333-8 8.6c-3.667 2.2-8.333 3.3-14 3.3H17V362H6.9v-70h24.5zM30 329.6c4.467 0 8.233-1.067 11.3-3.2s4.6-5.8 4.6-11-1.533-8.833-4.6-10.9c-3.067-2.133-6.833-3.2-11.3-3.2H17v28.3h13zm35.396-20.3h10.3V362h-10.3v-52.7zm5.1-9.6c-1.8 0-3.3-.6-4.5-1.8s-1.8-2.7-1.8-4.5.6-3.3 1.8-4.5 2.7-1.8 4.5-1.8 3.3.633 4.5 1.9c1.2 1.2 1.8 2.667 1.8 4.4a6.32 6.32 0 0 1-1.8 4.5c-1.2 1.2-2.7 1.8-4.5 1.8zm32.174 35.9l-17-26.3h11.6l12.3 20.3h.3l12.3-20.3h11.5l-17 26.3 16.9 26.4h-11.5l-12.2-20.2h-.3L97.37 362h-11.6l16.9-26.4zm61.235 27.1c-5.467 0-10.067-1.3-13.8-3.9s-6.5-5.967-8.3-10.1c-1.8-4.2-2.7-8.667-2.7-13.4s.9-9.167 2.7-13.3c1.8-4.2 4.566-7.6 8.3-10.2 3.8-2.6 8.433-3.9 13.9-3.9 7.2 0 12.933 2.367 17.2 7.1 4.266 4.667 6.4 11.467 6.4 20.4v2.9h-38.4v.7c0 2.667.6 5.167 1.8 7.5a14.99 14.99 0 0 0 5.1 5.7c2.2 1.4 4.733 2.1 7.6 2.1 3.133 0 5.833-.767 8.1-2.3 2.266-1.6 3.9-3.733 4.9-6.4h10.2a23.65 23.65 0 0 1-7.9 12.3c-3.934 3.2-8.967 4.8-15.1 4.8zm13.6-31.5c-.267-5.4-1.634-9.3-4.1-11.7-2.4-2.467-5.6-3.7-9.6-3.7-4.267 0-7.7 1.4-10.3 4.2-2.534 2.8-3.867 6.533-4 11.2h28zM198.61 362v-75.7h9.3V362h-9.3zm17.531-52.8h12.9l9 37.8h.5l10.7-37.8h12.1l11 37.8h.5l8.7-37.8h12.9l-13.5 52.8h-16.7l-8.5-31.8h-.7l-8.4 31.8h-16.7l-13.8-52.8zm102.454 53.6c-6.533 0-11.633-2.5-15.3-7.5s-5.5-11.6-5.5-19.8c0-8.333 1.834-15 5.5-20 3.734-5.067 8.934-7.6 15.6-7.6 4.467 0 7.967 1.033 10.5 3.1 2.534 2 4.334 4.133 5.4 6.4h.8v-8.2h13.9V362h-13.9v-9.1h-.8c-1.2 2.467-3.066 4.733-5.6 6.8s-6.066 3.1-10.6 3.1zm5.1-11.2c3.934 0 6.9-1.6 8.9-4.8s3-7.033 3-11.5-1-8.267-3-11.4c-1.933-3.133-4.9-4.7-8.9-4.7s-6.966 1.567-8.9 4.7-2.9 6.933-2.9 11.4c0 4.533.967 8.4 2.9 11.6 1.934 3.133 4.9 4.7 8.9 4.7zm31.459-42.4h13.1l12.6 38.8h.6l12.4-38.8h13.1l-17.6 52.8h-16.7l-17.5-52.8zm80.697 53.6c-5.534 0-10.2-1.267-14-3.8-3.8-2.6-6.634-5.967-8.5-10.1-1.8-4.2-2.7-8.7-2.7-13.5s.9-9.267 2.7-13.4a23.88 23.88 0 0 1 8.5-10.2c3.8-2.6 8.5-3.9 14.1-3.9 7.4 0 13.266 2.367 17.6 7.1 4.4 4.733 6.6 11.567 6.6 20.5v3.8h-36.2v.8c0 3.2 1.1 5.967 3.3 8.3 2.2 2.267 4.966 3.4 8.3 3.4 2.6 0 4.8-.6 6.6-1.8s3.1-2.833 3.9-4.9h13.6c-1.4 5.2-4.134 9.467-8.2 12.8-4.067 3.267-9.267 4.9-15.6 4.9zm11-32.5c-.134-4.2-1.2-7.3-3.2-9.3s-4.634-3-7.9-3c-3.467 0-6.2 1.1-8.2 3.3s-3.067 5.2-3.2 9h22.5z" fill="#fff"/><defs><linearGradient id="A" x1="364.95" y1="15.297" x2="88.068" y2="216.703" gradientUnits="userSpaceOnUse"><stop offset=".141" stop-color="#d3005d"/><stop offset=".594" stop-color="#8402ac"/><stop offset="1" stop-color="#452ad9"/></linearGradient></defs></svg>

<svg width="465" height="381" viewBox="0 0 465 381" fill="none" xmlns="http://www.w3.org/2000/svg">
<title>Pixelwave Logo</title>
<path d="M207.027 17.1542L207.264 16.9371L207.491 16.7099L208.365 15.8353L209.595 15.1325L209.638 15.1165L211.295 14.7851H328.23C359.331 18.0874 374.47 47.2415 368.672 72.7641C366.999 78.4357 362.681 87.4807 355.457 94.9069C348.369 102.194 338.918 107.559 326.218 107.477L326.17 107.476H326.122H285.463H270.677V122.262V186.46C270.589 186.667 270.391 187.071 270.011 187.386C269.799 187.562 269.282 187.931 268.13 188.194C267.193 188.408 265.687 188.582 263.459 188.391L228.505 170.513L206.988 159.508V183.677V224.434C206.957 224.504 206.92 224.582 206.876 224.666C206.673 225.05 206.405 225.385 206.072 225.65C205.784 225.88 205.213 226.249 204.069 226.49C203.169 226.68 201.749 226.821 199.68 226.613L113.613 177.587C108.343 172.644 105.319 166.606 103.854 160.842C102.193 154.31 102.864 149.538 103.257 148.393L103.461 147.801L103.613 147.194C104.604 143.258 108.736 135.488 115.765 129.849C122.194 124.691 130.277 121.828 140.624 124.811L142.631 125.389H142.712L183.703 145.488L204.998 155.929V132.213L204.998 24.4523L204.998 24.452C204.998 23.8124 205.153 21.9456 205.744 19.9698C206.346 17.9547 206.982 17.2064 207.025 17.1568C207.026 17.1548 207.027 17.1539 207.027 17.1542Z" stroke="url(#paint0_linear_86_15)" stroke-width="29.5702"/>
<path d="M31.4 292C37.0667 292 41.7333 293.133 45.4 295.4C49.0667 297.667 51.7333 300.567 53.4 304.1C55.0667 307.633 55.9 311.4 55.9 315.4C55.9 319.333 55.0667 323.033 53.4 326.5C51.7333 329.967 49.0667 332.833 45.4 335.1C41.7333 337.3 37.0667 338.4 31.4 338.4H17V362H6.9V292H31.4ZM30 329.6C34.4667 329.6 38.2333 328.533 41.3 326.4C44.3667 324.267 45.9 320.6 45.9 315.4C45.9 310.2 44.3667 306.567 41.3 304.5C38.2333 302.367 34.4667 301.3 30 301.3H17V329.6H30ZM65.3961 309.3H75.6961V362H65.3961V309.3ZM70.4961 299.7C68.6961 299.7 67.1961 299.1 65.9961 297.9C64.7961 296.7 64.1961 295.2 64.1961 293.4C64.1961 291.6 64.7961 290.1 65.9961 288.9C67.1961 287.7 68.6961 287.1 70.4961 287.1C72.2961 287.1 73.7961 287.733 74.9961 289C76.1961 290.2 76.7961 291.667 76.7961 293.4C76.7961 295.133 76.1961 296.633 74.9961 297.9C73.7961 299.1 72.2961 299.7 70.4961 299.7ZM102.67 335.6L85.6703 309.3H97.2703L109.57 329.6H109.87L122.17 309.3H133.67L116.67 335.6L133.57 362H122.07L109.87 341.8H109.57L97.3703 362H85.7703L102.67 335.6ZM163.905 362.7C158.438 362.7 153.838 361.4 150.105 358.8C146.371 356.2 143.605 352.833 141.805 348.7C140.005 344.5 139.105 340.033 139.105 335.3C139.105 330.567 140.005 326.133 141.805 322C143.605 317.8 146.371 314.4 150.105 311.8C153.905 309.2 158.538 307.9 164.005 307.9C171.205 307.9 176.938 310.267 181.205 315C185.471 319.667 187.605 326.467 187.605 335.4V338.3H149.205V339C149.205 341.667 149.805 344.167 151.005 346.5C152.205 348.833 153.905 350.733 156.105 352.2C158.305 353.6 160.838 354.3 163.705 354.3C166.838 354.3 169.538 353.533 171.805 352C174.071 350.4 175.705 348.267 176.705 345.6H186.905C185.571 350.533 182.938 354.633 179.005 357.9C175.071 361.1 170.038 362.7 163.905 362.7ZM177.505 331.2C177.238 325.8 175.871 321.9 173.405 319.5C171.005 317.033 167.805 315.8 163.805 315.8C159.538 315.8 156.105 317.2 153.505 320C150.971 322.8 149.638 326.533 149.505 331.2H177.505ZM198.61 362V286.3H207.91V362H198.61ZM216.141 309.2H229.041L238.041 347H238.541L249.241 309.2H261.341L272.341 347H272.841L281.541 309.2H294.441L280.941 362H264.241L255.741 330.2H255.041L246.641 362H229.941L216.141 309.2ZM318.595 362.8C312.062 362.8 306.962 360.3 303.295 355.3C299.629 350.3 297.795 343.7 297.795 335.5C297.795 327.167 299.629 320.5 303.295 315.5C307.029 310.433 312.229 307.9 318.895 307.9C323.362 307.9 326.862 308.933 329.395 311C331.929 313 333.729 315.133 334.795 317.4H335.595V309.2H349.495V362H335.595V352.9H334.795C333.595 355.367 331.729 357.633 329.195 359.7C326.662 361.767 323.129 362.8 318.595 362.8ZM323.695 351.6C327.629 351.6 330.595 350 332.595 346.8C334.595 343.6 335.595 339.767 335.595 335.3C335.595 330.833 334.595 327.033 332.595 323.9C330.662 320.767 327.695 319.2 323.695 319.2C319.695 319.2 316.729 320.767 314.795 323.9C312.862 327.033 311.895 330.833 311.895 335.3C311.895 339.833 312.862 343.7 314.795 346.9C316.729 350.033 319.695 351.6 323.695 351.6ZM355.154 309.2H368.254L380.854 348H381.454L393.854 309.2H406.954L389.354 362H372.654L355.154 309.2ZM435.851 362.8C430.317 362.8 425.651 361.533 421.851 359C418.051 356.4 415.217 353.033 413.351 348.9C411.551 344.7 410.651 340.2 410.651 335.4C410.651 330.6 411.551 326.133 413.351 322C415.217 317.8 418.051 314.4 421.851 311.8C425.651 309.2 430.351 307.9 435.951 307.9C443.351 307.9 449.217 310.267 453.551 315C457.951 319.733 460.151 326.567 460.151 335.5V339.3H423.951V340.1C423.951 343.3 425.051 346.067 427.251 348.4C429.451 350.667 432.217 351.8 435.551 351.8C438.151 351.8 440.351 351.2 442.151 350C443.951 348.8 445.251 347.167 446.051 345.1H459.651C458.251 350.3 455.517 354.567 451.451 357.9C447.384 361.167 442.184 362.8 435.851 362.8ZM446.851 330.3C446.717 326.1 445.651 323 443.651 321C441.651 319 439.017 318 435.751 318C432.284 318 429.551 319.1 427.551 321.3C425.551 323.5 424.484 326.5 424.351 330.3H446.851Z" fill="white"/>
<defs>
<linearGradient id="paint0_linear_86_15" x1="364.95" y1="15.2968" x2="88.0682" y2="216.703" gradientUnits="userSpaceOnUse">
<stop offset="0.140625" stop-color="#D3005D"/>
<stop offset="0.59375" stop-color="#8402AC"/>
<stop offset="1" stop-color="#452AD9"/>
</linearGradient>
</defs>
</svg>
